images/icon/ph_crown-light.svg

<svg width="48" height="48" viewBox="0 0 48 48" fill="none" xmlns="http://www.w3.org/2000/svg">
<path d="M44.5311 15.4894C44.1519 15.1457 43.6931 14.9251 43.2063 14.8522C42.7194 14.7793 42.2237 14.8572 41.7748 15.0769L32.3061 19.6969C32.2644 19.722 32.2185 19.7376 32.1712 19.7428C32.1239 19.7481 32.0761 19.7428 32.0307 19.7275C31.9853 19.7121 31.9431 19.6869 31.9067 19.6533C31.8703 19.6197 31.8403 19.5785 31.8186 19.5319L26.2873 8.60069C26.063 8.14882 25.7323 7.77173 25.3298 7.50902C24.9273 7.2463 24.4679 7.10767 23.9998 7.10767C23.5318 7.10767 23.0724 7.2463 22.6699 7.50902C22.2674 7.77173 21.9366 8.14882 21.7123 8.60069L16.1811 19.5319C16.1594 19.5785 16.1294 19.6197 16.093 19.6533C16.0566 19.6869 16.0144 19.7121 15.969 19.7275C15.9235 19.7428 15.8758 19.7481 15.8285 19.7428C15.7812 19.7376 15.7353 19.722 15.6936 19.6969L6.22483 15.0769C5.7775 14.8538 5.28222 14.7732 4.79531 14.8442C4.30839 14.9153 3.84937 15.1352 3.47043 15.479C3.09149 15.8228 2.80785 16.2766 2.65173 16.7889C2.49562 17.3012 2.47331 17.8514 2.58733 18.3769L7.36858 40.7138C7.44956 41.0913 7.59932 41.4468 7.8088 41.7588C8.01829 42.0707 8.28314 42.3327 8.58733 42.5288C8.98807 42.7986 9.44876 42.9413 9.91858 42.9413C10.159 42.9389 10.3983 42.9042 10.6311 42.8382C19.3723 40.1781 28.6052 40.171 37.3498 42.8176C37.6909 42.9259 38.0485 42.9569 38.4008 42.9089C38.7531 42.8608 39.093 42.7347 39.3997 42.538C39.7064 42.3413 39.9737 42.0783 40.1854 41.7647C40.397 41.4512 40.5486 41.0937 40.6311 40.7138L45.3936 18.3769C45.5126 17.8552 45.4947 17.307 45.342 16.796C45.1894 16.2849 44.9082 15.8319 44.5311 15.4894ZM43.2186 17.7994L38.4373 40.1363C38.4117 40.2448 38.3519 40.3398 38.2686 40.4044C38.1755 40.4543 38.07 40.4688 37.9686 40.4457C28.8273 37.668 19.1724 37.668 10.0311 40.4457C9.98181 40.4611 9.93019 40.4652 9.87942 40.4577C9.82864 40.4503 9.77979 40.4315 9.73587 40.4025C9.69195 40.3736 9.65389 40.335 9.62404 40.2892C9.5942 40.2434 9.5732 40.1914 9.56233 40.1363L4.78108 17.7994C4.77018 17.7378 4.7716 17.6742 4.78525 17.6132C4.7989 17.5522 4.82445 17.4952 4.86013 17.4462C4.8958 17.3971 4.94075 17.3572 4.99186 17.3292C5.04296 17.3011 5.099 17.2857 5.15608 17.2838L5.30608 17.3251L14.7936 21.9657C15.3919 22.2621 16.0698 22.2993 16.692 22.0699C17.3142 21.8405 17.8348 21.3613 18.1498 20.7282L23.6811 9.79694C23.7106 9.73179 23.7561 9.67698 23.8124 9.63867C23.8687 9.60037 23.9336 9.58008 23.9998 9.58008C24.066 9.58008 24.1309 9.60037 24.1872 9.63867C24.2435 9.67698 24.289 9.73179 24.3186 9.79694L29.8498 20.7282C30.1649 21.3613 30.6855 21.8405 31.3077 22.0699C31.9298 22.2993 32.6078 22.2621 33.2061 21.9657L42.6936 17.3251C42.7579 17.2937 42.8289 17.2829 42.8985 17.2938C42.9682 17.3048 43.0336 17.3371 43.0873 17.3869C43.1421 17.4353 43.1835 17.4996 43.2067 17.5725C43.2299 17.6454 43.234 17.7241 43.2186 17.7994ZM31.1248 33.4744C31.0929 33.779 30.9609 34.0602 30.7538 34.2653C30.5466 34.4704 30.2785 34.5852 29.9998 34.5882H29.8873C25.9722 34.1551 22.0275 34.1551 18.1123 34.5882C17.8166 34.6229 17.5204 34.5274 17.2885 34.3226C17.0566 34.1177 16.9079 33.8202 16.8748 33.4951C16.8485 33.1676 16.9397 32.8419 17.1289 32.5875C17.3181 32.3331 17.5904 32.1703 17.8873 32.1338C21.9509 31.6594 26.0487 31.6594 30.1123 32.1338C30.4058 32.1703 30.6751 32.3302 30.8638 32.58C31.0525 32.8299 31.1461 33.1504 31.1248 33.4744Z" fill="#2B7FFF"/>
</svg>

<svg xmlns="http://www.w3.org/2000/svg" width="48" height="48" fill="none"><path fill="#2B7FFF" d="M44.531 15.49a2.53 2.53 0 0 0-1.325-.638 2.43 2.43 0 0 0-1.431.225l-9.469 4.62a.33.33 0 0 1-.4-.044.4.4 0 0 1-.087-.121L26.287 8.6a2.77 2.77 0 0 0-.957-1.092 2.43 2.43 0 0 0-1.33-.4 2.43 2.43 0 0 0-1.33.401 2.77 2.77 0 0 0-.958 1.092l-5.53 10.93a.4.4 0 0 1-.089.122.4.4 0 0 1-.124.075q-.069.023-.14.015a.3.3 0 0 1-.135-.046l-9.47-4.62a2.4 2.4 0 0 0-1.429-.233 2.5 2.5 0 0 0-1.325.635 2.9 2.9 0 0 0-.818 1.31 3.16 3.16 0 0 0-.065 1.588L7.37 40.714c.08.377.23.733.44 1.045s.474.574.778.77c.401.27.862.412 1.332.412q.362-.004.712-.103a45.84 45.84 0 0 1 26.719-.02c.34.108.698.139 1.05.09a2.45 2.45 0 0 0 1-.37 2.7 2.7 0 0 0 .785-.773c.212-.314.364-.671.446-1.051l4.763-22.337a3.1 3.1 0 0 0-.052-1.581 2.87 2.87 0 0 0-.81-1.307M43.22 17.8l-4.782 22.336a.48.48 0 0 1-.168.268.43.43 0 0 1-.3.042 47.87 47.87 0 0 0-27.938 0 .34.34 0 0 1-.295-.043.4.4 0 0 1-.112-.114.4.4 0 0 1-.062-.153L4.782 17.8a.48.48 0 0 1 .078-.353.4.4 0 0 1 .132-.117.4.4 0 0 1 .164-.045l.15.041 9.488 4.64a2.4 2.4 0 0 0 1.898.105 2.7 2.7 0 0 0 1.458-1.342l5.53-10.932a.4.4 0 0 1 .131-.158.33.33 0 0 1 .375 0 .4.4 0 0 1 .132.158l5.53 10.931c.316.633.837 1.112 1.459 1.342s1.3.192 1.898-.104l9.488-4.64a.34.34 0 0 1 .393.06.4.4 0 0 1 .12.187.45.45 0 0 1 .012.226M31.125 33.473a1.3 1.3 0 0 1-.371.791 1.1 1.1 0 0 1-.754.323h-.113a53.5 53.5 0 0 0-11.775 0 1.06 1.06 0 0 1-.823-.265 1.27 1.27 0 0 1-.414-.828 1.35 1.35 0 0 1 .254-.907 1.12 1.12 0 0 1 .758-.454 52.7 52.7 0 0 1 12.225 0c.294.036.563.196.752.446.188.25.282.57.26.894"/></svg>
